X:1
T:Carmi, LM
T:Carmi, LM
T:Lowell Mason, 1839
T:Public Domain Courtesy of the Cyber Hymnal™
C:Lowell Mason, 1839
Z:Public Domain
Z:Courtesy of the Cyber Hymnal™
%%score ( 1 2 ) ( 3 4 )
L:1/8
Q:1/4=160
M:2/2
K:C
V:1 treble 
V:2 treble 
V:3 bass 
V:4 bass 
V:1
 C4 | D2 E2 F2 G2 | A4 G4 | [Ec]8- | [Ec]2 [Ec]2 [Ec]2 [Ec]2 | [Fc]4 F4 | [DG]4 (F2 E2) | [CF]8 | %8
 [EG]4 [EG]2 [Gc]2 | [FB]4 [Ec]4 | [Ec]4 [DA]4 | [DB]6 [DB]2 | [Gc]2 G2 [FA]2 [DF]2 | %13
 [CE]4 [B,D]4 | !fermata!C4 |] %15
V:2
 C4 | D2 E2 F2 G2 | A4 G4 | x8 | x8 | x4 F4 | x4 C4 | x8 | x8 | x8 | x8 | x8 | x2 G2 x4 | x8 | %14
 C4 |] %15
V:3
 C,4 | D,2 E,2 F,2 G,2 | A,4 G,4 | [C,G,]8- | [C,G,]2 [C,G,]2 [C,G,]2 [C,G,]2 | [F,A,]4 [A,,C]4 | %6
 [_B,,_B,]4 (A,2 G,2) | [F,A,]8 | [C,G,]4 [C,G,]2 [E,G,]2 | [D,G,]4 [C,G,]4 | [A,,A,]4 [D,^F,]4 | %11
 G,6 [=F,G,]2 | [E,G,]2 [E,C]2 [F,C]2 [F,A,]2 | G,4 (G,2 F,2) | !fermata![C,E,]4 |] %15
V:4
 C,4 | D,2 E,2 F,2 G,2 | A,4 G,4 | x8 | x8 | x8 | x4 C,4 | x8 | x8 | x8 | x8 | G,6 x2 | x8 | %13
 G,4 G,,4 | x4 |] %15

